X: 128
T: No_39.krn
N: Derived from No_39.krn
%%abc-version 2.0
%%abcx-abcm2ps-target-version 5.9.1 (29 Sep 2008)
%%abc-creator hum2abc beta
%%abcx-conversion-date 2019/03/15 08:29:13
%%humdrum-veritas 3719660163
%%humdrum-veritas-data 1423274786
%%linebreak <none>
%%barnumbers 0
L: 1/4
M: 3/4
K: F clef=bass
[K:clef=bass][M:3/4]CCC | 
C2C/C/ | 
CC(C/A,/) | 
C3 | 
C3 | 
A,A,C | 
A,2F,/F,/ | 
F,F,(F,/A,/) | 
G,3 | 
G,3 | 
A,A,A, | 
F,2F,/F,/ | 
F,F,(F,/D,/) | 
F,3 | 
F,3 | 
A,A,A, | 
F,2F,/F,/ | 
D,D,(D,/C,/) | 
D,3 | 
D,3 | 
F,F,F, | 
C,2C,/=B,,/ | 
C,C,(C,/A,,/) | 
C,3 | 
C,3 | 
A,,A,,C, | 
A,,2A,,/F,,/ | 
F,,F,,A,, | 
F,,3 | 
F,,3 |]  



